images/lucy/lucysleep.svg

<svg xmlns="http://www.w3.org/2000/svg" width="2000" height="1915" fill="none"><path fill="#ffaff3" stroke="#151515" stroke-width="80" d="M905.504 95.13c41.483-73.507 147.506-73.507 188.996 0l217.42 385.27c26.9 47.672 73.23 81.278 126.9 92.095l434.05 87.471c82.87 16.699 115.52 117.344 58.4 179.399L1631.6 1164.95a188.151 188.151 0 0 0-48.49 149.06l50.83 439.33c9.69 83.71-75.98 146.04-152.89 110.88l-402.64-184.05a188.552 188.552 0 0 0-156.823 0l-402.634 184.05c-76.915 35.16-162.584-27.17-152.898-110.88l50.837-439.33c6.292-54.37-11.413-108.78-48.488-149.06L68.725 839.366c-57.118-62.055-24.463-162.7 58.403-179.399l434.053-87.471c53.673-10.817 99.999-44.423 126.901-92.095L905.504 95.13Z"/><path stroke="#151515" stroke-linecap="round" stroke-width="80" d="M718.958 957.43a64.28 64.28 0 0 1-27.428 40.848 64.18 64.18 0 0 1-23.196 9.542 64.361 64.361 0 0 1-25.083-.05 64.305 64.305 0 0 1-40.848-27.432 64.307 64.307 0 0 1-9.546-23.195m462.073 191.587a64.439 64.439 0 0 1-9.65 23.15 64.425 64.425 0 0 1-17.78 17.7 64.18 64.18 0 0 1-23.2 9.54 64.346 64.346 0 0 1-25.08-.05 64.312 64.312 0 0 1-23.152-9.66 64.172 64.172 0 0 1-17.696-17.77 64.262 64.262 0 0 1-9.546-23.2m454.414-191.01a64.117 64.117 0 0 1-9.65 23.152 64.208 64.208 0 0 1-17.78 17.696 64.174 64.174 0 0 1-23.19 9.542 64.346 64.346 0 0 1-25.08-.05 64.407 64.407 0 0 1-23.16-9.655 64.324 64.324 0 0 1-17.69-17.777 64.226 64.226 0 0 1-9.55-23.195"/></svg>

<svg width="2000" height="1915" viewBox="0 0 2000 1915" fill="none" xmlns="http://www.w3.org/2000/svg">
<path d="M905.504 95.13C946.987 21.6234 1053.01 21.6233 1094.5 95.1299L1311.92 480.401C1338.82 528.073 1385.15 561.679 1438.82 572.496L1872.87 659.967C1955.74 676.666 1988.39 777.311 1931.27 839.366L1631.6 1164.95C1594.52 1205.23 1576.82 1259.64 1583.11 1314.01L1633.94 1753.34C1643.63 1837.05 1557.96 1899.38 1481.05 1864.22L1078.41 1680.17C1028.62 1657.4 971.38 1657.4 921.587 1680.17L518.953 1864.22C442.038 1899.38 356.369 1837.05 366.055 1753.34L416.892 1314.01C423.184 1259.64 405.479 1205.23 368.404 1164.95L68.7254 839.366C11.607 777.311 44.2619 676.666 127.128 659.967L561.181 572.496C614.854 561.679 661.18 528.073 688.082 480.401L905.504 95.13Z" fill="#ffaff3" stroke="#151515" stroke-width="80"/>
<path d="M718.958 957.43C717.292 965.706 714.013 973.573 709.306 980.582C704.6 987.591 698.56 993.604 691.53 998.278C684.499 1002.95 676.618 1006.2 668.334 1007.82C660.05 1009.45 651.527 1009.43 643.251 1007.77C634.975 1006.1 627.108 1002.82 620.099 998.115C613.091 993.409 607.078 987.368 602.403 980.338C597.729 973.308 594.486 965.426 592.857 957.143" stroke="#151515" stroke-width="80" stroke-linecap="round"/>
<path d="M1054.93 1148.73C1053.26 1157.01 1049.98 1164.87 1045.28 1171.88C1040.57 1178.89 1034.53 1184.9 1027.5 1189.58C1020.47 1194.25 1012.59 1197.5 1004.3 1199.12C996.019 1200.75 987.496 1200.73 979.22 1199.07C970.944 1197.4 963.077 1194.12 956.068 1189.41C949.059 1184.71 943.046 1178.67 938.372 1171.64C933.698 1164.61 930.454 1156.73 928.826 1148.44" stroke="#151515" stroke-width="80" stroke-linecap="round"/>
<path d="M1383.24 957.43C1381.58 965.706 1378.3 973.573 1373.59 980.582C1368.89 987.591 1362.84 993.604 1355.81 998.278C1348.78 1002.95 1340.9 1006.2 1332.62 1007.82C1324.34 1009.45 1315.81 1009.43 1307.54 1007.77C1299.26 1006.1 1291.39 1002.82 1284.38 998.115C1277.38 993.409 1271.36 987.368 1266.69 980.338C1262.01 973.308 1258.77 965.426 1257.14 957.143" stroke="#151515" stroke-width="80" stroke-linecap="round"/>
</svg>
